**kern	**kern
*part1	*part1
*staff2	*staff1
*I"Piano	*
*clefF4	*clefG2
*k[b-e-a-d-]	*k[b-e-a-d-]
=1	=1
8AAA-L	4b- 4dd- 4bb-
8E-	.
8A- 8c	8a-L 8cc 8aa-
8E-	8b- 8dd- 8bb-
8A- 8c	8cc 8ee- 8ccc
8E-J	8dd-J 8ff 8ddd-
=	=
8EE-L 8E-	4.ee- 4.gg 4.eee-
8E-	.
8G 8B- 8d-	.
8E-	8dd-L 8ff 8ddd-
8G 8B- 8d-	8cc 8ee- 8ccc
8E-J	8b-J 8dd- 8bb-
=	=
8AAA-L 8AA-	4dd- 4ff 4ddd-
8E-	.
8A- 8c	8ccL 8ee- 8ccc
8E-	8bn 8dd- 8bbn
8A- 8c	8cc 8ee- 8ccc
8E-J	8ee-TJ
=	=
8AAA-L 8AA-	4cc 4ee- 4ccc
8E-	.
8A- 8c	4b- 4dd- 4bb-
8E-	.
8A- 8c	4cc 4ee- 4ccc
8E-J	.
=	=
8DD-L 8D-	4.ee- 4.gg 4.eee-
8D-	.
8F 8B-	.
8D-	8dd-L 8ff 8ddd-
8F 8B-	8cc 8ee- 8ccc
8D-J	8b-J 8dd- 8bb-
=	=
2E- 2A- 2c	2a- 2cc 2aa-
4E- 4F 4A- 4B-	4b- 4ddn 4bb-
=	=
2E-; 2G 2B-	2b-; 2ee- 2bb-
4r	4r
=	=
*-	*-
!!!system-decoration: {(s1,s2)}
